img/wf/bnd01.svg

<?xml version="1.0" encoding="UTF-8" standalone="no"?>
<svg
   width="40"
   height="40"
   viewBox="0 0 40 40"
   fill="none"
   version="1.1"
   id="svg3"
   sodipodi:docname="bnd01.svg"
   inkscape:version="1.3 (0e150ed6c4, 2023-07-21)"
   xmlns:inkscape="http://www.inkscape.org/namespaces/inkscape"
   xmlns:sodipodi="http://sodipodi.sourceforge.net/DTD/sodipodi-0.dtd"
   xmlns="http://www.w3.org/2000/svg"
   xmlns:svg="http://www.w3.org/2000/svg">
  <sodipodi:namedview
     id="namedview3"
     pagecolor="#505050"
     bordercolor="#ffffff"
     borderopacity="1"
     inkscape:showpageshadow="0"
     inkscape:pageopacity="0"
     inkscape:pagecheckerboard="1"
     inkscape:deskcolor="#505050"
     inkscape:zoom="35.3"
     inkscape:cx="10"
     inkscape:cy="9.9858357"
     inkscape:window-width="1920"
     inkscape:window-height="992"
     inkscape:window-x="1911"
     inkscape:window-y="-9"
     inkscape:window-maximized="1"
     inkscape:current-layer="svg3" />
  <g
     clip-path="url(#clip0_297_16850)"
     id="g3"
     transform="scale(2)">
    <path
       d="M 10,20 C 4.47715,20 0,15.5228 0,10 0,4.47715 4.47715,0 10,0 c 5.5228,0 10,4.47715 10,10 0,5.5228 -4.4772,10 -10,10 z"
       fill="#cccccc"
       id="path1" />
    <path
       d="m 9.00007,15 v -2 h 2.00003 v 2 z"
       fill="#1a1a1a"
       id="path2" />
    <path
       d="m 13.5001,8 c 0,1.5855 -1.0543,2.9248 -2.5,3.3551 V 12 H 9.00007 v -1.5 c 0,-0.5523 0.4477,-1 1.00003,-1 0.8284,0 1.5,-0.6716 1.5,-1.5 0,-0.82843 -0.6716,-1.5 -1.5,-1.5 -0.72773,0 -1.33443,0.51823 -1.47123,1.20577 L 6.56738,7.31346 C 6.88644,5.70919 8.30207,4.5 10.0001,4.5 c 1.933,0 3.5,1.567 3.5,3.5 z"
       fill="#1a1a1a"
       id="path3" />
  </g>
  <defs
     id="defs3">
    <clipPath
       id="clip0_297_16850">
      <rect
         width="20"
         height="20"
         fill="#ffffff"
         id="rect3"
         x="0"
         y="0" />
    </clipPath>
  </defs>
</svg>

<svg width="20" height="20" viewBox="0 0 20 20" fill="none" xmlns="http://www.w3.org/2000/svg">
<g clip-path="url(#clip0_297_16850)">
<path d="M10 20C4.47715 20 0 15.5228 0 10C0 4.47715 4.47715 0 10 0C15.5228 0 20 4.47715 20 10C20 15.5228 15.5228 20 10 20Z" fill="#CCCCCC"/>
<path d="M9.00007 15V13H11.0001V15H9.00007Z" fill="#1A1A1A"/>
<path d="M13.5001 8C13.5001 9.5855 12.4458 10.9248 11.0001 11.3551V12H9.00007V10.5C9.00007 9.9477 9.44777 9.5 10.0001 9.5C10.8285 9.5 11.5001 8.8284 11.5001 8C11.5001 7.17157 10.8285 6.5 10.0001 6.5C9.27237 6.5 8.66567 7.01823 8.52887 7.70577L6.56738 7.31346C6.88644 5.70919 8.30207 4.5 10.0001 4.5C11.9331 4.5 13.5001 6.067 13.5001 8Z" fill="#1A1A1A"/>
</g>
<defs>
<clipPath id="clip0_297_16850">
<rect width="20" height="20" fill="white"/>
</clipPath>
</defs>
</svg>
